icons/telescope-filled.svg

<svg width="256" height="256" viewBox="0 0 256 256" fill="none" xmlns="http://www.w3.org/2000/svg">
<rect width="256" height="256" rx="60" fill="#4040C8" />
<path d="M99.7143 172.54C97.6882 172.54 95.6819 172.148 93.81 171.386C91.9381 170.625 90.2373 169.508 88.8046 168.101C87.372 166.694 86.2355 165.024 85.4601 163.185C84.6848 161.347 84.2857 159.376 84.2857 157.386V149.809C84.2857 147.8 83.473 145.873 82.0262 144.452C80.5795 143.031 78.6174 142.233 76.5714 142.233C74.5255 142.233 72.5633 143.031 71.1166 144.452C69.6699 145.873 68.8571 147.8 68.8571 149.809V157.386C68.8571 159.376 68.4581 161.347 67.6827 163.185C66.9074 165.024 65.7709 166.694 64.3382 168.101C62.9055 169.508 61.2047 170.625 59.3328 171.386C57.4609 172.148 55.4547 172.54 53.4286 172.54H45.7143C43.6683 172.54 41.7062 173.338 40.2595 174.759C38.8128 176.18 38 178.107 38 180.116C38 182.126 38.8128 184.053 40.2595 185.474C41.7062 186.895 43.6683 187.693 45.7143 187.693H53.4286C57.5205 187.693 61.4448 189.29 64.3382 192.131C67.2316 194.973 68.8571 198.828 68.8571 202.847V210.423C68.8571 212.433 69.6699 214.36 71.1166 215.781C72.5633 217.202 74.5255 218 76.5714 218C78.6174 218 80.5795 217.202 82.0262 215.781C83.473 214.36 84.2857 212.433 84.2857 210.423V202.847C84.2857 198.828 85.9112 194.973 88.8046 192.131C91.6981 189.29 95.6224 187.693 99.7143 187.693H107.429C109.475 187.693 111.437 186.895 112.883 185.474C114.33 184.053 115.143 182.126 115.143 180.116C115.143 178.107 114.33 176.18 112.883 174.759C111.437 173.338 109.475 172.54 107.429 172.54H99.7143ZM194.857 82.4605C188.719 82.4605 182.833 80.0657 178.493 75.8029C174.153 71.5402 171.714 65.7587 171.714 59.7302V48.3651C171.714 45.3509 170.495 42.4601 168.325 40.3288C166.155 38.1974 163.212 37 160.143 37C157.074 37 154.131 38.1974 151.961 40.3288C149.791 42.4601 148.571 45.3509 148.571 48.3651V59.7302C148.571 65.7587 146.133 71.5402 141.793 75.8029C137.453 80.0657 131.566 82.4605 125.429 82.4605H113.857C110.788 82.4605 107.845 83.6579 105.675 85.7892C103.505 87.9206 102.286 90.8114 102.286 93.8256C102.286 96.8398 103.505 99.7306 105.675 101.862C107.845 103.993 110.788 105.191 113.857 105.191H125.429C131.566 105.191 137.453 107.585 141.793 111.848C146.133 116.111 148.571 121.893 148.571 127.921V139.286C148.571 142.3 149.791 145.191 151.961 147.322C154.131 149.454 157.074 150.651 160.143 150.651C163.212 150.651 166.155 149.454 168.325 147.322C170.495 145.191 171.714 142.3 171.714 139.286V127.921C171.714 121.893 174.153 116.111 178.493 111.848C182.833 107.585 188.719 105.191 194.857 105.191H206.429C209.497 105.191 212.441 103.993 214.611 101.862C216.781 99.7306 218 96.8398 218 93.8256C218 90.8114 216.781 87.9206 214.611 85.7892C212.441 83.6579 209.497 82.4605 206.429 82.4605H194.857ZM177.286 218C181.264 218 185.079 216.448 187.892 213.685C190.705 210.922 192.286 207.175 192.286 203.267C192.286 199.36 190.705 195.613 187.892 192.85C185.079 190.087 181.264 188.535 177.286 188.535C173.307 188.535 169.492 190.087 166.679 192.85C163.866 195.613 162.286 199.36 162.286 203.267C162.286 207.175 163.866 210.922 166.679 213.685C169.492 216.448 173.307 218 177.286 218ZM48.7143 87.5116C51.5559 87.5116 54.2811 86.4029 56.2904 84.4294C58.2997 82.4559 59.4286 79.7793 59.4286 76.9884C59.4286 74.1974 58.2997 71.5208 56.2904 69.5473C54.2811 67.5738 51.5559 66.4651 48.7143 66.4651C45.8727 66.4651 43.1475 67.5738 41.1381 69.5473C39.1288 71.5208 38 74.1974 38 76.9884C38 79.7793 39.1288 82.4559 41.1381 84.4294C43.1475 86.4029 45.8727 87.5116 48.7143 87.5116Z" fill="white"/>
</svg>

<svg xmlns="http://www.w3.org/2000/svg" width="256" height="256" fill="none"><rect width="256" height="256" fill="#4040C8" rx="60"/><path fill="#fff" d="M99.714 172.54c-2.026 0-4.032-.392-5.904-1.154a15.4 15.4 0 0 1-5.005-3.285 15.1 15.1 0 0 1-3.345-4.916 14.9 14.9 0 0 1-1.174-5.799v-7.577a7.5 7.5 0 0 0-2.26-5.357 7.8 7.8 0 0 0-5.455-2.219 7.8 7.8 0 0 0-5.454 2.219 7.5 7.5 0 0 0-2.26 5.357v7.577c0 1.99-.399 3.961-1.174 5.799a15.1 15.1 0 0 1-3.345 4.916 15.4 15.4 0 0 1-5.005 3.285 15.7 15.7 0 0 1-5.904 1.154h-7.715a7.8 7.8 0 0 0-5.454 2.219 7.5 7.5 0 0 0-2.26 5.357 7.5 7.5 0 0 0 2.26 5.358 7.8 7.8 0 0 0 5.454 2.219h7.715c4.091 0 8.016 1.597 10.91 4.438a15.02 15.02 0 0 1 4.518 10.716v7.576a7.5 7.5 0 0 0 2.26 5.358A7.8 7.8 0 0 0 76.57 218a7.8 7.8 0 0 0 5.455-2.219 7.5 7.5 0 0 0 2.26-5.358v-7.576a15.02 15.02 0 0 1 4.519-10.716 15.58 15.58 0 0 1 10.91-4.438h7.714a7.78 7.78 0 0 0 5.454-2.219 7.5 7.5 0 0 0 2.26-5.358 7.5 7.5 0 0 0-2.26-5.357 7.78 7.78 0 0 0-5.454-2.219zm95.143-90.08c-6.138 0-12.024-2.394-16.364-6.657s-6.779-10.044-6.779-16.073V48.365c0-3.014-1.219-5.905-3.389-8.036A11.68 11.68 0 0 0 160.143 37a11.68 11.68 0 0 0-8.182 3.329 11.26 11.26 0 0 0-3.39 8.036V59.73c0 6.029-2.438 11.81-6.778 16.073s-10.227 6.657-16.364 6.657h-11.572a11.68 11.68 0 0 0-8.182 3.33 11.26 11.26 0 0 0-3.389 8.036c0 3.014 1.219 5.905 3.389 8.036a11.68 11.68 0 0 0 8.182 3.329h11.572c6.137 0 12.024 2.394 16.364 6.657s6.778 10.045 6.778 16.073v11.365c0 3.014 1.22 5.905 3.39 8.036a11.68 11.68 0 0 0 8.182 3.329c3.069 0 6.012-1.197 8.182-3.329a11.26 11.26 0 0 0 3.389-8.036v-11.365c0-6.028 2.439-11.81 6.779-16.073s10.226-6.657 16.364-6.657h11.572c3.068 0 6.012-1.198 8.182-3.329A11.26 11.26 0 0 0 218 93.826c0-3.015-1.219-5.905-3.389-8.037a11.68 11.68 0 0 0-8.182-3.329zM177.286 218c3.978 0 7.793-1.552 10.606-4.315a14.6 14.6 0 0 0 4.394-10.418c0-3.907-1.581-7.654-4.394-10.417a15.14 15.14 0 0 0-10.606-4.315 15.14 15.14 0 0 0-10.607 4.315 14.6 14.6 0 0 0-4.393 10.417 14.6 14.6 0 0 0 4.393 10.418A15.14 15.14 0 0 0 177.286 218M48.714 87.512c2.842 0 5.567-1.11 7.576-3.083a10.43 10.43 0 0 0 3.139-7.44 10.43 10.43 0 0 0-3.139-7.442 10.8 10.8 0 0 0-7.576-3.082 10.8 10.8 0 0 0-7.576 3.082A10.43 10.43 0 0 0 38 76.988a10.43 10.43 0 0 0 3.138 7.441 10.8 10.8 0 0 0 7.576 3.083"/></svg>
